X: 16979
T: Hazel's Fancy
R: jig
M: 6/8
K: Eminor
|:BEE EF/G/A|B3 AFd|AFE D3|FED EF/G/A|
BEE EF/G/A|B3 AFd|AFE D3|FED E3:|
|:d3 dBA|B3 AFD|d3 dBA|B3 e3|
dee dBA|B3 AFd|dcB AFD|FED E3:|

